X:1
T:Title
%%score 1 { 2 | 3 }
L:1/8
Q:1/4=88
M:6/8
K:G
V:1 treble nm="Grand Piano, Soprano"
V:2 bass nm="Choir Pad, Tenderly Guide Us"
V:3 bass 
V:1
 [B,D][DB][DB] [DB][DA][DG] | [DF][Fc][Fc] [Fc]3 | D[Dc][Dc] [Dc][DB][DA] | [DG][Dd][Dd] [Dd]3 | %4
w: By~George~Frederick~Root * * * * *||||
 [B,D][DB][DB] [DB][DA][DG] | [DF][Fc][Fc] [Fc]3 | D[DF][FA] [Ac][DB][DA] | [DG]6 | %8
w: ||||
 [CE] [Ec]2- [Ec]2- [Ec]/ z/ | D [DB]2- [DB]2- [DB]/ z/ | D[DF][FA] [Ac][DB][DA] | %11
w: |||
 D[DG][DA] [DB]3 | [CE] [Ec]2- [Ec]2- [Ec]/ z/ | [B,D] [DB]2- [DB]2- [DB]/ z/ | %14
w: |||
 D[DF][FA] [Ac][DB][DA] | [DG]6- | [DG]3 z3 |] %17
w: |||
V:2
 G,G,G, G,A,B, | A,A,A, A,3 | F,A,A, A,B,C | B,B,B, B,3 | G,G,G, G,A,B, | A,A,A, A,3 | %6
 F,A,A, A,B,C | B,6 | G,G,G, G,G,G, | G,G,G, G,3 | F,A,A, A,B,C | B,B,B, G,3 | G,G,G, G,G,G, | %13
 G,G,G, G,3 | F,A,A, A,B,C | B,6- | B,3 z3 |] %17
V:3
 G,,G,,G,, G,,G,,G,, | D,D,D, D,3 | D,D,D, D,D,D, | G,G,G, G,3 | G,,G,,G,, G,,G,,G,, | D,D,D, D,3 | %6
 D,D,D, D,D,D, | G,6 | C,C,C, C,C,C, | G,,G,,G,, G,,3 | D,D,D, D,D,D, | G,G,G, z3 | C,C,C, C,C,C, | %13
 G,,G,,G,, G,,3 | D,D,D, D,D,D, | G,6- | G,3 z3 |] %17

